symbols-de/shields/motorway_6x3.svg

<?xml version="1.0" encoding="UTF-8" standalone="no"?>
<svg
   xmlns:dc="http://purl.org/dc/elements/1.1/"
   xmlns:cc="http://creativecommons.org/ns#"
   xmlns:rdf="http://www.w3.org/1999/02/22-rdf-syntax-ns#"
   xmlns:svg="http://www.w3.org/2000/svg"
   xmlns="http://www.w3.org/2000/svg"
   xmlns:sodipodi="http://sodipodi.sourceforge.net/DTD/sodipodi-0.dtd"
   xmlns:inkscape="http://www.inkscape.org/namespaces/inkscape"
   width="100%"
   height="100%"
   viewBox="0 0 45.0 33.0"
   id="svg2"
   version="1.1"
   inkscape:version="0.91 r13725"
   sodipodi:docname="autobahn_6x3.svg">
  <metadata
     id="metadata9">
    <rdf:RDF>
      <cc:Work
         rdf:about="">
        <dc:format>image/svg+xml</dc:format>
        <dc:type
           rdf:resource="http://purl.org/dc/dcmitype/StillImage" />
        <dc:title></dc:title>
      </cc:Work>
    </rdf:RDF>
  </metadata>
  <defs
     id="defs7" />
  <sodipodi:namedview
     pagecolor="#ffffff"
     bordercolor="#666666"
     borderopacity="1"
     objecttolerance="10"
     gridtolerance="10"
     guidetolerance="10"
     inkscape:pageopacity="0"
     inkscape:pageshadow="2"
     inkscape:window-width="1198"
     inkscape:window-height="747"
     id="namedview5"
     showgrid="false"
     inkscape:zoom="7.1515152"
     inkscape:cx="22.5"
     inkscape:cy="16.5"
     inkscape:window-x="452"
     inkscape:window-y="79"
     inkscape:window-maximized="0"
     inkscape:current-layer="svg2" />
  <path
     style="fill:#365eaf;fill-opacity:1;stroke:#0528a2;stroke-width:1;stroke-miterlimit:4;stroke-dasharray:none;stroke-opacity:1"
     d="m 22.5,0.4999994 c -0.31541,0 -0.472656,0.00326 -0.472656,0.011719 L 1.210638,2.2812494 C 0.737519,2.3660964 0.5,2.4943619 0.5,2.664062 l 0,27.671875 c 0,0.1697 0.237519,0.297962 0.710638,0.382812 l 20.816706,1.769531 c 0,0.0085 0.157249,0.01172 0.472656,0.01172 0.315413,0 0.472657,-0.0032 0.472657,-0.01172 l 20.816706,-1.769531 c 0.47312,-0.08485 0.606916,-0.224567 0.710638,-0.382812 0,-14.860404 0,-14.542796 0,-27.671875 0,-0.1697001 -0.237518,-0.2979653 -0.710638,-0.3828126 L 22.972657,0.5117182 c 0,-0.00846 -0.157249,-0.011719 -0.472657,-0.011719 z"
     id="path6"
     inkscape:connector-curvature="0"
     sodipodi:nodetypes="sccccccsccccccs" />
</svg>

<?xml version="1.0" encoding="UTF-8"?>
<svg xmlns="http://www.w3.org/2000/svg" xmlns:xlink="http://www.w3.org/1999/xlink" width="47pt" height="42pt" viewBox="0 0 47 42" version="1.1">
<g id="surface1">
<path style="fill-rule:nonzero;fill:rgb(21.176471%,36.862745%,68.627451%);fill-opacity:1;stroke-width:1;stroke-linecap:butt;stroke-linejoin:miter;stroke:rgb(1.960784%,15.686275%,63.529412%);stroke-opacity:1;stroke-miterlimit:4;" d="M 22.5 0.500279 C 22.185838 0.500279 22.028757 0.503348 22.028757 0.512556 L 1.211769 2.280413 C 0.736785 2.36635 0.501164 2.495257 0.501164 2.664062 L 0.501164 30.335938 C 0.501164 30.504743 0.736785 30.63365 1.211769 30.719587 L 22.028757 32.487444 C 22.028757 32.496652 22.185838 32.499721 22.5 32.499721 C 22.814162 32.499721 22.971243 32.496652 22.971243 32.487444 L 43.788231 30.719587 C 44.263215 30.63365 44.397856 30.495536 44.498836 30.335938 C 44.498836 15.474888 44.498836 15.794085 44.498836 2.664062 C 44.498836 2.495257 44.263215 2.36635 43.788231 2.280413 L 22.971243 0.512556 C 22.971243 0.503348 22.814162 0.500279 22.5 0.500279 Z M 22.5 0.500279 " transform="matrix(1.044444,0,0,1.272727,0,0)"/>
</g>
</svg>
